X: 12
T: No_10_Corn_Dance_Song_(f).krn
N: Derived from No_10_Corn_Dance_Song_(f).krn
%%abc-version 2.0
%%abcx-abcm2ps-target-version 5.9.1 (29 Sep 2008)
%%abc-creator hum2abc beta
%%abcx-conversion-date 2019/03/15 08:38:45
%%humdrum-veritas 1334240534
%%humdrum-veritas-data 4015858968
%%linebreak <none>
%%barnumbers 0
L: 1/8
M: 3/4
K: Eb clef=bass
[K:clef=bass][M:3/4]B,2G, z CC ||  
[M:2/4]B,4 ||  
[M:3/4]B,2B,2B,2 ||  
[M:2/4]G,4 ||  
[M:3/4]G,2G,E,G,2 ||  
[M:2/4]E,2z B, | 
B,4 ||  
[M:3/4]B,/G,3/-G,2A,/G,3/ ||  
[M:2/4]E, z/ G,/ G,E,/E,/ | 
G,2z2 ]|:  
B,3/B,/ G,3/E,/ | 
G,3A,/G,/ | 
E,3/E,/ E,E, | 
E,2z3/ B,,/ | 
E,E,E,2 | 
z3/ B,/ G,3/E,/ | 
G,3A,/G,/ | 
E,3/E,/ E,E, | 
E,3z/ B,,/ ||  
[M:3/4]E,E,E,2z2 | 
[M:3/8]B,G,3//E,//B, ||  
[M:3/4]B,3B, B,B, | 
G,3G, G,3//E,//G,/G,/ ||  
[M:2/4]E,2z B,/B,/ ||  
[M:3/4]B,2B,/G,3/ A,/G,3/ ||  
[M:2/4]E,3/G,/ G,3/E,/ | 
G,2z2 :|]  



